!!!COM: Bach, Johann Sebastian
!!!OPR: Joh. Seb. Bachs vierstimmige Choralgesänge
!!!XEN: Four-part Chorales
!!!OTL: 16. Auf, auf, mein Herz
!!!SCT: BWV 268
!!!SCA: Thematisch-systematisches Verzeichnis der musikalischen Werke Johann Sebastian Bach: Bach-Werke-Verzeichnis (Schmieder)
!!!YOR: Bach Gesellschaft Edition xxxix
!!!ENC: Steven Rasmussen
!!!CDT: 1685/3//-1750/7/28/
!!!OCY: Deutschland
!!!YEC: Copyright (c) 1994, 2000 Center for Computer Assisted Research in the Humanities
!!!YEM: Rights to all derivative editions reserved
!!!YEN: United States of America
**kern	**kern	**kern	**kern	**silbe
*I:[BASSO]	*I:[TENORE]	*I:[ALTO]	*I:[SOPRANO]	*I:[SOPRANO]
*clefF4	*clefGv2	*clefG2	*clefG2	*
*k[f#]	*k[f#]	*k[f#]	*k[f#]	*
*G:	*G:	*G:	*G:	*
*M4/4	*M4/4	*M4/4	*M4/4	*
8GL	4d	4g	4b	Auf,
8F#J	.	.	.	.
=1	=1	=1	=1	=1
4G	8dL	8gL	4b	auf,
.	8eJ	8eJ	.	.
4D#	4f#	8bL	4b	mein
.	.	8aJ	.	.
4E;	4e;	4g;	4b;	Herz,
4C	4e	8aL	4ee	und
.	.	8gJ	.	.
=2	=2	=2	=2	=2
4.C	8AL	8f#L	4dd	du,
.	8GJ	8eJ	.	.
.	8AL	8f#L	4dd	mein
8BB	8BJ	8g#J	.	.
8AAL	8cL	4a	4cc	gan-
8GG#xJ	8BJ	.	.	.
4AAx	4A	8eL	4cc	-zer
.	.	8f#J	.	.
=3	=3	=3	=3	=3
4GG;	4d;	4g;	4b;	Sinn,
4G	4B	4d	4g	wirf
8F#L	4A	8dL	4a	Al-
8EJ	.	8eJ	.	.
4D	8dL	8f#L	4a	-les
.	8cJ	8eJ	.	.
=4	=4	=4	=4	=4
8GL	8BL	4d	4b	das,
8F#J	8AJ	.	.	.
4E	4G	8gL	4cc	was
.	.	8eJ	.	.
4D	8AL	8f#L	8ddL	Welt
.	8F#J	8aJ	8ccJ	.
8EL	8GL	4g	4b	ist,
8DJ	8BJ	.	.	.
=5	=5	=5	=5	=5
8CL	8eL	8gL	4a	von
8AAJ	8cJ	16f#L	.	.
.	.	16eJJ	.	.
4D	8AL	4f#	4a	dir
.	16dL	.	.	.
.	16cJJ	.	.	.
4GG;	4B;	4d;	4g;	hin;
4G	4c#	4e	4a	im
=6	=6	=6	=6	=6
8F#L	8dL	8f#L	4a	Fall
8EJ	8c#J	8gJ	.	.
8DL	8dL	8f#L	4a	du
8C#J	8eJ	8eJ	.	.
4D;	4d;	4f#;	4a;	willst,
4D#	4B	4f#	8bL	was
.	.	.	8aJ	.
=7	=7	=7	=7	=7
8EL	4B	4f#	4g	gÃ¶tt-
8F#J	.	.	.	.
8GL	4B	4e	4g	-lich
8EJ	.	.	.	.
8C#L	8AL	8eL	4a	ist,
8D#J	8F#J	8f#J	.	.
8EL	4G	8BL	4g	er-
8CnJ	.	8eJ	.	.
=8	=8	=8	=8	=8
4AA	4c	8eL	2f#	-lan-
.	.	8d#	.	.
4AA#	4c#	8e	.	.
.	.	8c#J	.	.
4BB;	4B;	4d#;	4f#;	-gen,
4D#	8BL	4B	4f#	so
.	8AJ	.	.	.
=9	=9	=9	=9	=9
8EL	8GL	4B	4g	lass
8DJ	8F#J	.	.	.
8CL	8GL	8eL	4g	den
8BBJ	8BJ	8dJ	.	.
8AAL	4c	8eL	4a	Leib,
8GGJ	.	16f#L	.	.
.	.	16gJJ	.	.
8FF#L	8cL	8aL	4a	in
8DDJ	16dL	8f#J	.	.
.	16cJJ	.	.	.
=10	=10	=10	=10	=10
8GGL	4B	8dL	4b	dem
8GJ	.	16eL	.	.
.	.	16f#JJ	.	.
8EL	8BL	8gL	4cc	du
8AJ	16AL	16f#L	.	.
.	16GJJ	16eJJ	.	.
8F#L	8AL	(8f#	8ddL	bist,
8DJ	8f#J	4a)	8ccJ	.
8GL	8dL	.	4b	ge-
8EJ	8eJ	8g	.	.
=11	=11	=11	=11	=11
8CL	8eL	4g	2a	-fan-
8AAJ	8c	.	.	.
4D	8A	4f#	.	.
.	16dL	.	.	.
.	16cJJ	.	.	.
4GG;	4B;	4d;	4g;	-gen.
==|!	==|!	==|!	==|!	==|!
*-	*-	*-	*-	*-
!!!RWG: Key is interpreted using the Humdrum key tool.
!!!URL-pdf: https://s9.imslp.org/files/imglnks/usimg/6/6b/IMSLP24489-PMLP09471-CCARH_Bach_Chorales.pdf#page=10 Musedata edition
!!!URL-pdf: https://s9.imslp.org/files/imglnks/usimg/7/7a/IMSLP04155-Bach_-_BGA_253-438.pdf#page=10 	Bach-Gesellschaft Ausgabe, Band 39 (pp.175-276) Leipzig: Breitkopf und Härtel, 1892. Plate B.W. XXXIX.
!!!END: 1994/05/06
!!!EMD: Converted from MuseData to Humdrum Dec 19, 2000, by Andreas Kornstaedt using muse2kern.
!!!EED: Craig Stuart Sapp
!!!EEV: 2024/03/31
!!!filter-keyboard: satb2gs
!!!title: @{OTL} (@{SCT})
